!!!!SEGMENT:Hitosujinoonnagokoro.krn
!!!OTL:一筋の女心
!!!OPR:Eiga Banso Kyokusyu,jidai-geki,kouhen
!!!YOY:1928
!!!ONB:LoveScene
**kern
*clefG2
*k[f#]
*G:
*M2/4
4b
=1
2g
=2
8gL
8f#
8.B
16eJk
=3
4f#
8ggL
8ff#J
=4
8eL
8ee
8ff#
8eeJ
=5
4cc
4b
=6
[2cc
=7
4.cc]
8ee
=8
4ff#
4ee
=9
4cc
4b
=10
4cc#X
4b
=11
4g
8gL
8f#J
=12
2e
=13
4r
4a
=14
4b
4b
=15
4b
8gL
8bJ
=16
4cc#X
4cc#
=17
4cc#X
4r
=18
8bL
8b
8a
8aJ
=19
8f#
4f#
8e
=20
8f#L
8e
8B
8cJ
=21
4c
8BL
8cJ
=22
4c
4e
=23
4f#
4f#
=24
4B
4e
=25
2f#
=26
4r
4ee
=27
*^
4ee	4ryy
4raa	4e
=28	=28
4raa	4e
4ff#	4ryy
*v	*v
=29
4r
4cc
=30
4r
4b
=31
2ee
=32
2ff#
=33
4cc
[4b
=34
8bL]
8gJ
4f#
=35
[2e
=36
4e]
4r
=37
4ff#
4ee
=38
4cc
4b
=39
2g
=40
4b
4cc#X
=41
2dd
=42
4cc#X
4b
=43
4g
4g
=44
4b
4g
=45
4f#
4ee
=46
4cc
4b
=47
2a
=48
4r
8bL
8aJ
=49
[2b
=50
4b]
8ggL
8ff#J
=51
4ee
4r
=52
4cc
4b
=53
2cc
=54
4.cc
8ee
=55
4ff#
4ff#
=56
4ff#
8ff#L
8ggJ
=57
[2b
=58
4b]
4r
==
*-
!!!ENC: Yukiko Yoden
!!!END: 2023/06/11
